src/icons/icons_set_01/049-mobilité-réduite.svg

<svg height="50" viewBox="0 0 50 50" width="50" xmlns="http://www.w3.org/2000/svg"><path d="m32.1065889 26.970264c.9617065 1.0776485 2.1169849 1.9972583 3.1763747 2.996866.8527422.804628.9491436 1.7878447.2663858 2.4921693-.7368554.7596138-1.800091.7214497-2.7064179-.1308835-.9394009-.8834027-1.9116192-1.7442984-2.7592336-2.7040294-.6983973-.790928-1.4675574-1.113611-2.5477145-1.0575879-1.4888376.0775515-2.9858795.0007339-4.4785628.0281338-.693526.0127214-.9911909-.1949797-.9799099-.9090901.0361505-2.3201859.0148704-4.6411057.0094863-6.9617809-.003333-1.4071815.9914473-2.0415386 2.5436124-2.6181601-1.6677955-.5746643-2.7118021-1.2381337-2.6256561-2.7818255.0623019-1.1180146.9211973-2.1044116 2.0816035-2.2947432 1.1493815-.1886191 2.4343916.5531359 2.823843 1.6295612.4015016 1.1099413.0041022 2.3940678-1.086054 2.8160755-1.255782.4861039-1.1973259.7429781-.0451241 1.2731176.7217286.3319794 1.1091289 1.0348362 1.117846 1.8066821.0076916.6693409.3099715.8440153.9383753.8092762.5525133-.0305803 1.1170768-.0528427 1.6611294.0215285.6099439.0836676 1.2214262.3160776 1.1427155 1.0578325-.0661478.6231035-.5676402.8670117-1.1873268.8819349-.4263711.0100303-.8545368.0210392-1.279626-.0048929-.70814-.043057-1.221939-.0080732-1.2106579.9247473.009999.8215082.2815125 1.1177698 1.1150257.996672 1.7308665-.2514921 2.9410117.5081217 4.029886 1.7283966zm-2.135714 4.7662428c1.2722352 1.0885663 1.3123155 1.1877535.4093739 2.5315149-1.6785842 2.497871-4.0713039 3.6801418-7.1665637 3.7319783-3.0919828-.1136415-5.590323-1.453914-7.099007-4.216201-1.6485869-3.0184789-1.4812074-5.9965851.5868365-8.8732613.861853-1.1987189 1.9435176-2.0238662 3.2089467-2.6788003.6485955-.3356912 1.134853-.4426039 1.1429195.6367415.0083185 1.1104972-.3216509 1.733532-1.3513876 2.3383742-3.4237167 2.0116547-3.0645063 7.6690597.5346564 9.752488 3.4169107 1.9777616 7.388644.6576755 8.9177462-3.0291951.2724958-.6566787.403324-.5470246.8164791-.1936392zm11.0743379 5.4855182c.0136524-7.831.010922-15.662-.0012412-23.49325-.0037234-2.31175-1.5047517-3.771-3.8256737-3.77275-3.8462766-.00325-7.6928014-.001-11.539078-.0005-3.8462766 0-7.6952837.0885-11.5378369-.03375-2.2578724-.07175-4.15904257 1.592-4.1322341 4.17275.0794327 7.622.0265603 15.2455.0282979 22.8685.0002482 2.68625 1.4451773 4.18475 4.1041844 4.18975 7.6515958.014 15.3031915.01375 22.9547872.00075 2.4735816-.0045 3.9443263-1.466 3.9487944-3.9315zm1.9237588-23.42725c.0151419 7.82625.0181206 15.65275.0027305 23.47925-.0062056 3.219-2.5356383 5.70325-5.7519149 5.7045-7.8151773.00325-15.6306028-.037-23.4455319.02125-3.0660993.023-5.77028367-2.908-5.7705319-5.79225-.00124113-7.78775-.00893617-15.5755.0027305-23.36325.00421986-2.89775 2.6629787-5.8325 5.7596099-5.79775 3.969149.04425 7.9390426.01075 11.908688.01075v.044c3.8864893 0 7.7729787-.00675 11.6594681.002 3.1145035.007 5.6287943 2.53025 5.6347517 5.6915z" fill-rule="evenodd"/></svg>

<?xml version="1.0" encoding="UTF-8"?>
<svg width="50px" height="50px" viewBox="0 0 50 50" version="1.1" xmlns="http://www.w3.org/2000/svg" xmlns:xlink="http://www.w3.org/1999/xlink">
    <!-- Generator: Sketch 52.5 (67469) - http://www.bohemiancoding.com/sketch -->
    <title>049-mobilité-réduite</title>
    <desc>Created with Sketch.</desc>
    <g id="049-mobilité-réduite" stroke="none" stroke-width="1" fill="none" fill-rule="evenodd">
        <path d="M32.1065889,26.970264 C33.0682954,28.0479125 34.2235738,28.9675223 35.2829636,29.96713 C36.1357058,30.771758 36.2321072,31.7549747 35.5493494,32.4592993 C34.812494,33.2189131 33.7492584,33.180749 32.8429315,32.3284158 C31.9035306,31.4450131 30.9313123,30.5841174 30.0836979,29.6243864 C29.3853006,28.8334584 28.6161405,28.5107754 27.5359834,28.5667985 C26.0471458,28.64435 24.5501039,28.5675324 23.0574206,28.5949323 C22.3638946,28.6076537 22.0662297,28.3999526 22.0775107,27.6858422 C22.1136612,25.3656563 22.0923811,23.0447365 22.086997,20.7240613 C22.083664,19.3168798 23.0784443,18.6825227 24.6306094,18.1059012 C22.9628139,17.5312369 21.9188073,16.8677675 22.0049533,15.3240757 C22.0672552,14.2060611 22.9261506,13.2196641 24.0865568,13.0293325 C25.2359383,12.8407134 26.5209484,13.5824684 26.9103998,14.6588937 C27.3119014,15.768835 26.914502,17.0529615 25.8243458,17.4749692 C24.5685638,17.9610731 24.6270199,18.2179473 25.7792217,18.7480868 C26.5009503,19.0800662 26.8883506,19.782923 26.8970677,20.5547689 C26.9047593,21.2241098 27.2070392,21.3987842 27.835443,21.3640451 C28.3879563,21.3334648 28.9525198,21.3112024 29.4965724,21.3855736 C30.1065163,21.4692412 30.7179986,21.7016512 30.6392879,22.4434061 C30.5731401,23.0665096 30.0716477,23.3104178 29.4519611,23.325341 C29.02559,23.3353713 28.5974243,23.3463802 28.1723351,23.3204481 C27.4641951,23.2773911 26.9503961,23.3123749 26.9616772,24.2451954 C26.9716762,25.0667036 27.2431897,25.3629652 28.0767029,25.2418674 C29.8075694,24.9903753 31.0177146,25.7499891 32.1065889,26.970264 Z M29.9708749,31.7365068 C31.2431101,32.8250731 31.2831904,32.9242603 30.3802488,34.2680217 C28.7016646,36.7658927 26.3089449,37.9481635 23.2136851,38 C20.1217023,37.8863585 17.6233621,36.546086 16.1146781,33.783799 C14.4660912,30.7653201 14.6334707,27.7872139 16.7015146,24.9105377 C17.5633676,23.7118188 18.6450322,22.8866715 19.9104613,22.2317374 C20.5590568,21.8960462 21.0453143,21.7891335 21.0533808,22.8684789 C21.0616993,23.9789761 20.7317299,24.6020109 19.7019932,25.2068531 C16.2782765,27.2185078 16.6374869,32.8759128 20.2366496,34.9593411 C23.6535603,36.9371027 27.6252936,35.6170166 29.1543958,31.930146 C29.4268916,31.2734673 29.5577198,31.3831214 29.9708749,31.7365068 Z M41.0452128,37.222025 C41.0588652,29.391025 41.0561348,21.560025 41.0439716,13.728775 C41.0402482,11.417025 39.5392199,9.957775 37.2182979,9.956025 C33.3720213,9.952775 29.5254965,9.955025 25.6792199,9.955525 C21.8329433,9.955525 17.9839362,10.044025 14.141383,9.921775 C11.8835106,9.850025 9.98234043,11.513775 10.0091489,14.094525 C10.0885816,21.716525 10.0357092,29.340025 10.0374468,36.963025 C10.037695,39.649275 11.4826241,41.147775 14.1416312,41.152775 C21.793227,41.166775 29.4448227,41.166525 37.0964184,41.153525 C39.57,41.149025 41.0407447,39.687525 41.0452128,37.222025 Z M42.9689716,13.794775 C42.9841135,21.621025 42.9870922,29.447525 42.9717021,37.274025 C42.9654965,40.493025 40.4360638,42.977275 37.2197872,42.978525 C29.4046099,42.981775 21.5891844,42.941525 13.7742553,42.999775 C10.708156,43.022775 8.00397163,40.091775 8.0037234,37.207525 C8.00248227,29.419775 7.99478723,21.632025 8.0064539,13.844275 C8.01067376,10.946525 10.6694326,8.011775 13.7660638,8.046525 C17.7352128,8.090775 21.7051064,8.057275 25.6747518,8.057275 C25.6747518,8.071775 25.6747518,8.086525 25.6747518,8.101275 C29.5612411,8.101275 33.4477305,8.094525 37.3342199,8.103275 C40.4487234,8.110275 42.9630142,10.633525 42.9689716,13.794775 Z" id="Fill-5" fill="#000000"></path>
    </g>
</svg>
